X: 26
T:Father's #2
M:3/4
L:1/4
S:Angus Cameron
N:from The Scottish Music List, Vol2 No 93
Z:Bernard Chenery
K:D
A|f2 A|f2 A|f a f|d2 A|e2 A|e2 A|e f e|c B A|
f2 A|f2 A|f a f|d2 c|B e d|c a c|d2 :|
A|f2 e|d2 c|B2 c|A2 A|f2 e|d2 c|B e ^g|a2 A|
f2 e|d2 c|B2 c|A2 A|B e d|c a c|d3|d2:|
